packages/synapse-interface/assets/chains/ethereum.svg

<svg fill="none" height="48" viewBox="0 0 48 48" width="48" xmlns="http://www.w3.org/2000/svg"><path clip-rule="evenodd" d="m23.9965.00059328c.177-.00868635.3489.07842802.4452.23396872l14.7572 23.839338c.0707.1142.092.2522.059.3823-.033.1302-.1175.2414-.2341.3081l-14.7573 8.4445c-.0834.0477-.1772.0693-.27.0647-.0928.0046-.1866-.017-.2701-.0647l-14.75721-8.4445c-.11655-.0667-.20101-.1779-.23402-.3081-.03301-.1301-.01174-.2681.05894-.3823l14.75719-23.839338c.0963-.1555407.2683-.24265507.4452-.23396872zm14.9801 26.84460672c.1574.1729.1725.4322.0362.6221l-14.5899 20.3263c-.0996.1388-.2614.2139-.4264.2058-.165.0081-.3268-.067-.4264-.2058l-14.58992-20.3263c-.13631-.1899-.12123-.4492.03616-.6221.1574-.1728.41423-.212.61601-.094l14.36415 8.4 14.3641-8.4c.2018-.118.4586-.0788.616.094z" fill="#1616b4" fill-rule="evenodd"/><path d="m23.4772 45.966-12.3349-17.1846 12.3349 7.2133z" fill="#f0cdc2"/><path d="m24.5159 45.9659v-9.9712l12.3348-7.2133z" fill="#c9b3f5"/><path d="m23.4773 31.9252-13.171-7.5368 13.171-5.8978z" fill="#88aaf1"/><path d="m24.5158 31.9252v-13.4346l13.171 5.8978z" fill="#c9b3f5"/><path d="m23.4772 17.4055-12.9918 5.8176 12.9918-20.98757z" fill="#f0cdc2"/><path d="m24.5159 17.4055v-15.16997l12.9918 20.98757z" fill="#b8faf6"/></svg>

<svg width="48" height="48" viewBox="0 0 48 48" fill="none" xmlns="http://www.w3.org/2000/svg">
<path fill-rule="evenodd" clip-rule="evenodd" d="M23.9965 0.000593276C24.1735 -0.00809307 24.3454 0.0790213 24.4417 0.234562L39.1989 24.0739C39.2696 24.1881 39.2909 24.3261 39.2579 24.4562C39.2249 24.5864 39.1404 24.6976 39.0238 24.7643L24.2665 33.2088C24.1831 33.2565 24.0893 33.2781 23.9965 33.2735C23.9037 33.2781 23.8099 33.2565 23.7264 33.2088L8.96919 24.7643C8.85264 24.6976 8.76818 24.5864 8.73517 24.4562C8.70216 24.3261 8.72343 24.1881 8.79411 24.0739L23.5513 0.234562C23.6476 0.0790213 23.8196 -0.00809307 23.9965 0.000593276ZM38.9766 26.8452C39.134 27.0181 39.1491 27.2774 39.0128 27.4673L24.4229 47.7936C24.3233 47.9324 24.1615 48.0075 23.9965 47.9994C23.8315 48.0075 23.6697 47.9324 23.5701 47.7936L8.98018 27.4673C8.84387 27.2774 8.85895 27.0181 9.01634 26.8452C9.17374 26.6724 9.43057 26.6332 9.63235 26.7512L23.9965 35.1512L38.3606 26.7512C38.5624 26.6332 38.8192 26.6724 38.9766 26.8452Z" fill="#1616B4"/>
<path d="M23.4772 45.966L11.1423 28.7814L23.4772 35.9947V45.966Z" fill="#F0CDC2"/>
<path d="M24.5159 45.9659V35.9947L36.8507 28.7814L24.5159 45.9659Z" fill="#C9B3F5"/>
<path d="M23.4773 31.9252L10.3063 24.3884L23.4773 18.4906V31.9252Z" fill="#88AAF1"/>
<path d="M24.5158 31.9252V18.4906L37.6868 24.3884L24.5158 31.9252Z" fill="#C9B3F5"/>
<path d="M23.4772 17.4055L10.4854 23.2231L23.4772 2.23553V17.4055Z" fill="#F0CDC2"/>
<path d="M24.5159 17.4055V2.23553L37.5077 23.2231L24.5159 17.4055Z" fill="#B8FAF6"/>
</svg>
